X:62
T:Erdő, erdő, erdő
M:4/4
L:1/4
K:D
A,DCD | E2 A2 | G/F/E/F/ E<D | A,2 A,2 |
A,DCD | E2 A2 | G/F/E/F/ E<D | A,2 A,2 |
AABG | F/E/F/G/ B A | D<D E E | F/E/D/C/ B,A, |
ADC<D | E2 A2 | G/F/E/F/ E<D | A,2 A,2 |

